modules/hawcons-filled/icons/icon-37-boxing-glove.svg

<?xml version="1.0" encoding="UTF-8" standalone="no"?>
<svg width="32px" height="32px" viewBox="0 0 32 32" version="1.1" xmlns="http://www.w3.org/2000/svg" xmlns:xlink="http://www.w3.org/1999/xlink" xmlns:sketch="http://www.bohemiancoding.com/sketch/ns">
    <!-- Generator: Sketch 3.0.3 (7891) - http://www.bohemiancoding.com/sketch -->
    <title>icon 37 boxing glove</title>
    <desc>Created with Sketch.</desc>
    <defs></defs>
    <g id="Page-1" stroke="none" stroke-width="1" fill="none" fill-rule="evenodd" sketch:type="MSPage">
        <g id="icon-37-boxing-glove" sketch:type="MSArtboardGroup" fill="#929292">
            <path d="M8.00000894,16 C8.00810152,19.5110695 11.0838896,19.8813601 11.8356919,22 L25.0000089,22 L25.0000089,11.9935641 C25.0000089,8.68341003 22.3064005,6 18.9947005,6 L18.0053173,6 C14.6886771,6 12.0000089,8.68636322 12.0000089,11.9970707 L12.0000089,12.5810623 C12.4831362,12.8215815 12.8487583,12.999595 12.8854343,13.012923 C14.4302085,13.5742914 16.1539182,14.0093994 17.5387052,14.0093994 C18.4533365,14.0093994 19.4024186,13.8218528 20.3261499,13.5084178 C20.6509843,13.3981969 20.9488732,13.2801951 21.2126199,13.1625905 C21.3683518,13.0931498 21.4761349,13.0403507 21.5289089,13.0124342 L21.9964996,13.8963793 C21.9246246,13.9343998 21.796853,13.9969906 21.6198679,14.0759082 C21.3290863,14.2055675 21.0027716,14.3348296 20.6474703,14.4553883 C19.6279566,14.8013237 18.5749865,15.0093994 17.5387052,15.0093994 C16.0054528,15.0093994 14.1913587,14.5514761 12.5438888,13.9527882 C12.4493451,13.9184312 12.1263437,13.7611269 11.5388659,13.4685552 C11.3115005,13.3552878 11.0891488,13.2439507 10.8675701,13.1326216 C9.67891793,13.3707204 7.99552501,14.0545905 8.00000894,16 L8.00000894,16 Z M12.0000089,23 L12.0000089,25 C12.0000089,26.1045695 12.8935516,27 14.0027691,27 L22.9972488,27 C24.1033427,27 25.0000089,26.1122704 25.0000089,25 L25.0000089,23 L12.0000089,23 L12.0000089,23 Z M14.0000089,24 L14.0000089,25 L18.0000089,25 L18.0000089,24 L14.0000089,24 L14.0000089,24 Z" id="boxing-glove" sketch:type="MSShapeGroup"></path>
        </g>
    </g>
</svg>

<svg width="32" height="32" viewBox="0 0 32 32" xmlns="http://www.w3.org/2000/svg"><path d="M8 16c.008 3.511 3.084 3.881 3.836 6H25V11.994C25 8.684 22.306 6 18.995 6h-.99A6.002 6.002 0 0 0 12 11.997v.584c.483.24.849.419.885.432 1.545.561 3.269.996 4.654.996.914 0 1.863-.187 2.787-.5.325-.11.623-.229.887-.346.155-.07.263-.123.316-.15l.467.883a6.7 6.7 0 0 1-.376.18c-.29.13-.617.259-.973.38-1.019.345-2.072.553-3.108.553-1.534 0-3.348-.458-4.995-1.056-.095-.035-.418-.192-1.005-.484l-.671-.336C9.678 13.37 7.996 14.055 8 16zm4 7v2a2 2 0 0 0 2.003 2h8.994A1.996 1.996 0 0 0 25 25v-2H12zm2 1v1h4v-1h-4z" fill="#929292" fill-rule="evenodd"/></svg>
